X:34
T:I’d be a Butterfly. CJF.034
T:No. 2. CJF.034
R:Air
C:T H Bayley Esq.
S:C.J.Fox MS, 1829/33, Beverley,E.Yorks.
N:On the stave at the end is “D. Capo” – PJH.
B:Kidson Coll.Mitchell Lib.M1805
O:England
A:East Yorkshire
Z:vmp.P J Headford 2000 & 2008
M:2/4
L:1/16
Q:1/4=60
K:D
“$ ff”f4g2g2|\
a2a2d4|d’4c’2b2|(b4a3)g|f4g2g2|a6b2|\
(a2f2)(f2e2)|d2(fa) d’2z2h||!
“p”e4e2e2|^g2f2e4|d’3b a^gfg|{b}a^gac’e4|!
e4e2e2|^g2f2e4|bc’d’b ^gabg|a^gba =gfge|!
f4agfg|a2a2d4|d’2c’d’ e’d’c’b|(b4a3)g|f4agfg|!
a4b2c’d’|(ba) f2 (ag) e2|dA” f”^GA Bcd”$”e|]

